images/6603863.svg

<?xml version="1.0" encoding="UTF-8"?>
<svg xmlns="http://www.w3.org/2000/svg" xmlns:xlink="http://www.w3.org/1999/xlink" width="300pt" height="300pt" viewBox="0 0 300 300" version="1.1">
<defs>
<g>
<symbol overflow="visible" id="glyph0-0">
<path style="stroke:none;" d="M 0.796875 2.828125 L 0.796875 -11.28125 L 8.796875 -11.28125 L 8.796875 2.828125 Z M 1.703125 1.9375 L 7.90625 1.9375 L 7.90625 -10.390625 L 1.703125 -10.390625 Z M 1.703125 1.9375 "/>
</symbol>
<symbol overflow="visible" id="glyph0-1">
<path style="stroke:none;" d="M 1.578125 -11.671875 L 3.703125 -11.671875 L 8.875 -1.90625 L 8.875 -11.671875 L 10.40625 -11.671875 L 10.40625 0 L 8.28125 0 L 3.109375 -9.765625 L 3.109375 0 L 1.578125 0 Z M 1.578125 -11.671875 "/>
</symbol>
<symbol overflow="visible" id="glyph0-2">
<path style="stroke:none;" d="M 1.578125 -11.671875 L 3.15625 -11.671875 L 3.15625 -6.890625 L 8.890625 -6.890625 L 8.890625 -11.671875 L 10.46875 -11.671875 L 10.46875 0 L 8.890625 0 L 8.890625 -5.5625 L 3.15625 -5.5625 L 3.15625 0 L 1.578125 0 Z M 1.578125 -11.671875 "/>
</symbol>
<symbol overflow="visible" id="glyph0-3">
<path style="stroke:none;" d="M 8.5625 -11.28125 L 8.5625 -9.75 C 7.96875 -10.03125 7.40625 -10.238281 6.875 -10.375 C 6.34375 -10.519531 5.828125 -10.59375 5.328125 -10.59375 C 4.472656 -10.59375 3.8125 -10.425781 3.34375 -10.09375 C 2.875 -9.757812 2.640625 -9.285156 2.640625 -8.671875 C 2.640625 -8.160156 2.796875 -7.769531 3.109375 -7.5 C 3.421875 -7.238281 4.007812 -7.03125 4.875 -6.875 L 5.828125 -6.671875 C 7.003906 -6.453125 7.867188 -6.054688 8.421875 -5.484375 C 8.984375 -4.921875 9.265625 -4.164062 9.265625 -3.21875 C 9.265625 -2.09375 8.882812 -1.234375 8.125 -0.640625 C 7.375 -0.0546875 6.265625 0.234375 4.796875 0.234375 C 4.242188 0.234375 3.65625 0.164062 3.03125 0.03125 C 2.414062 -0.09375 1.773438 -0.273438 1.109375 -0.515625 L 1.109375 -2.140625 C 1.742188 -1.785156 2.367188 -1.515625 2.984375 -1.328125 C 3.597656 -1.148438 4.203125 -1.0625 4.796875 -1.0625 C 5.703125 -1.0625 6.398438 -1.238281 6.890625 -1.59375 C 7.378906 -1.945312 7.625 -2.453125 7.625 -3.109375 C 7.625 -3.679688 7.445312 -4.128906 7.09375 -4.453125 C 6.738281 -4.773438 6.160156 -5.015625 5.359375 -5.171875 L 4.40625 -5.359375 C 3.226562 -5.597656 2.375 -5.96875 1.84375 -6.46875 C 1.320312 -6.96875 1.0625 -7.660156 1.0625 -8.546875 C 1.0625 -9.578125 1.421875 -10.390625 2.140625 -10.984375 C 2.867188 -11.578125 3.875 -11.875 5.15625 -11.875 C 5.695312 -11.875 6.25 -11.820312 6.8125 -11.71875 C 7.382812 -11.625 7.96875 -11.476562 8.5625 -11.28125 Z M 8.5625 -11.28125 "/>
</symbol>
<symbol overflow="visible" id="glyph0-4">
<path style="stroke:none;" d="M 6.3125 -10.59375 C 5.164062 -10.59375 4.253906 -10.164062 3.578125 -9.3125 C 2.898438 -8.457031 2.5625 -7.296875 2.5625 -5.828125 C 2.5625 -4.359375 2.898438 -3.195312 3.578125 -2.34375 C 4.253906 -1.488281 5.164062 -1.0625 6.3125 -1.0625 C 7.457031 -1.0625 8.363281 -1.488281 9.03125 -2.34375 C 9.695312 -3.195312 10.03125 -4.359375 10.03125 -5.828125 C 10.03125 -7.296875 9.695312 -8.457031 9.03125 -9.3125 C 8.363281 -10.164062 7.457031 -10.59375 6.3125 -10.59375 Z M 6.3125 -11.875 C 7.945312 -11.875 9.253906 -11.328125 10.234375 -10.234375 C 11.210938 -9.140625 11.703125 -7.671875 11.703125 -5.828125 C 11.703125 -3.984375 11.210938 -2.507812 10.234375 -1.40625 C 9.253906 -0.3125 7.945312 0.234375 6.3125 0.234375 C 4.664062 0.234375 3.351562 -0.3125 2.375 -1.40625 C 1.394531 -2.507812 0.90625 -3.984375 0.90625 -5.828125 C 0.90625 -7.671875 1.394531 -9.140625 2.375 -10.234375 C 3.351562 -11.328125 4.664062 -11.875 6.3125 -11.875 Z M 6.3125 -11.875 "/>
</symbol>
</g>
</defs>
<g id="surface40973">
<rect x="0" y="0" width="300" height="300" style="fill:rgb(100%,100%,100%);fill-opacity:1;stroke:none;"/>
<path style="fill:none;stroke-width:1;stroke-linecap:butt;stroke-linejoin:miter;stroke:rgb(0%,0%,0%);stroke-opacity:1;stroke-miterlimit:10;" d="M 94.265625 181.800781 L 94.265625 181.800781 M 95.933594 184.296875 L 96.6875 183.574219 M 97.597656 186.789062 L 99.105469 185.347656 M 99.265625 189.285156 L 101.523438 187.121094 M 100.929688 191.78125 L 103.945312 188.894531 M 102.597656 194.273438 L 106.363281 190.671875 M 104.261719 196.769531 L 108.78125 192.445312 M 105.929688 199.265625 L 111.203125 194.21875 M 107.59375 201.757812 L 113.621094 195.992188 M 109.261719 204.253906 L 116.039062 197.765625 M 110.925781 206.75 L 118.460938 199.539062 M 112.59375 209.246094 L 120.878906 201.3125 M 114.257812 211.738281 L 123.300781 203.089844 M 115.835938 214.101562 L 125.589844 204.769531 "/>
<path style="fill:none;stroke-width:1.2;stroke-linecap:butt;stroke-linejoin:miter;stroke:rgb(0%,0%,0%);stroke-opacity:1;stroke-miterlimit:10;" d="M 94.265625 181.800781 L 57.113281 190.886719 "/>
<path style="fill:none;stroke-width:1.2;stroke-linecap:butt;stroke-linejoin:miter;stroke:rgb(0%,0%,100%);stroke-opacity:1;stroke-miterlimit:10;" d="M 104.976562 145.082031 L 99.621094 163.441406 "/>
<path style="fill:none;stroke-width:1.2;stroke-linecap:butt;stroke-linejoin:miter;stroke:rgb(0%,0%,0%);stroke-opacity:1;stroke-miterlimit:10;" d="M 99.621094 163.441406 L 94.265625 181.800781 "/>
<path style="fill:none;stroke-width:1.2;stroke-linecap:butt;stroke-linejoin:miter;stroke:rgb(0%,0%,0%);stroke-opacity:1;stroke-miterlimit:10;" d="M 57.113281 190.886719 L 43.890625 177.070312 "/>
<path style="fill:none;stroke-width:1.2;stroke-linecap:butt;stroke-linejoin:miter;stroke:rgb(0%,0%,100%);stroke-opacity:1;stroke-miterlimit:10;" d="M 43.890625 177.070312 L 30.664062 163.25 "/>
<path style="fill:none;stroke-width:1.2;stroke-linecap:butt;stroke-linejoin:miter;stroke:rgb(0%,0%,100%);stroke-opacity:1;stroke-miterlimit:10;" d="M 30.664062 163.25 L 36.019531 144.890625 "/>
<path style="fill:none;stroke-width:1.2;stroke-linecap:butt;stroke-linejoin:miter;stroke:rgb(0%,0%,0%);stroke-opacity:1;stroke-miterlimit:10;" d="M 36.019531 144.890625 L 41.375 126.53125 "/>
<path style=" stroke:none;fill-rule:nonzero;fill:rgb(100%,100%,100%);fill-opacity:1;" d="M 18.664062 153.75 L 42.664062 153.75 L 42.664062 172.75 L 18.664062 172.75 Z M 18.664062 153.75 "/>
<g style="fill:rgb(0%,0%,100%);fill-opacity:1;">
  <use xlink:href="#glyph0-1" x="18.664062" y="168.601562"/>
  <use xlink:href="#glyph0-2" x="30.632812" y="168.601562"/>
</g>
<path style="fill:none;stroke-width:1.2;stroke-linecap:butt;stroke-linejoin:miter;stroke:rgb(0%,0%,0%);stroke-opacity:1;stroke-miterlimit:10;" d="M 41.375 126.53125 L 78.53125 117.445312 "/>
<path style="fill:none;stroke-width:1.2;stroke-linecap:butt;stroke-linejoin:miter;stroke:rgb(0%,0%,0%);stroke-opacity:1;stroke-miterlimit:10;" d="M 78.53125 117.445312 L 91.753906 131.261719 "/>
<path style="fill:none;stroke-width:1.2;stroke-linecap:butt;stroke-linejoin:miter;stroke:rgb(0%,0%,100%);stroke-opacity:1;stroke-miterlimit:10;" d="M 91.753906 131.261719 L 104.976562 145.082031 "/>
<path style="fill:none;stroke-width:1.2;stroke-linecap:butt;stroke-linejoin:miter;stroke:rgb(0%,0%,100%);stroke-opacity:1;stroke-miterlimit:10;" d="M 104.976562 145.082031 L 123.554688 140.539062 "/>
<path style="fill:none;stroke-width:1.2;stroke-linecap:butt;stroke-linejoin:miter;stroke:rgb(80%,80%,0%);stroke-opacity:1;stroke-miterlimit:10;" d="M 123.554688 140.539062 L 142.132812 135.996094 "/>
<path style=" stroke:none;fill-rule:nonzero;fill:rgb(100%,100%,100%);fill-opacity:1;" d="M 98.976562 135.582031 L 110.976562 135.582031 L 110.976562 154.582031 L 98.976562 154.582031 Z M 98.976562 135.582031 "/>
<g style="fill:rgb(0%,0%,100%);fill-opacity:1;">
  <use xlink:href="#glyph0-1" x="98.976562" y="150.433594"/>
</g>
<path style="fill:none;stroke-width:1.2;stroke-linecap:butt;stroke-linejoin:miter;stroke:rgb(80%,80%,0%);stroke-opacity:1;stroke-miterlimit:10;" d="M 146.503906 134.925781 L 141.960938 116.347656 "/>
<path style="fill:none;stroke-width:1.2;stroke-linecap:butt;stroke-linejoin:miter;stroke:rgb(100%,0%,0%);stroke-opacity:1;stroke-miterlimit:10;" d="M 141.960938 116.347656 L 137.417969 97.769531 "/>
<path style="fill:none;stroke-width:1.2;stroke-linecap:butt;stroke-linejoin:miter;stroke:rgb(80%,80%,0%);stroke-opacity:1;stroke-miterlimit:10;" d="M 137.761719 137.0625 L 133.21875 118.484375 "/>
<path style="fill:none;stroke-width:1.2;stroke-linecap:butt;stroke-linejoin:miter;stroke:rgb(100%,0%,0%);stroke-opacity:1;stroke-miterlimit:10;" d="M 133.21875 118.484375 L 128.675781 99.90625 "/>
<path style="fill:none;stroke-width:1.2;stroke-linecap:butt;stroke-linejoin:miter;stroke:rgb(80%,80%,0%);stroke-opacity:1;stroke-miterlimit:10;" d="M 137.761719 137.0625 L 142.304688 155.640625 "/>
<path style="fill:none;stroke-width:1.2;stroke-linecap:butt;stroke-linejoin:miter;stroke:rgb(100%,0%,0%);stroke-opacity:1;stroke-miterlimit:10;" d="M 142.304688 155.640625 L 146.847656 174.21875 "/>
<path style="fill:none;stroke-width:1.2;stroke-linecap:butt;stroke-linejoin:miter;stroke:rgb(80%,80%,0%);stroke-opacity:1;stroke-miterlimit:10;" d="M 146.503906 134.925781 L 151.046875 153.503906 "/>
<path style="fill:none;stroke-width:1.2;stroke-linecap:butt;stroke-linejoin:miter;stroke:rgb(100%,0%,0%);stroke-opacity:1;stroke-miterlimit:10;" d="M 151.046875 153.503906 L 155.589844 172.082031 "/>
<path style="fill:none;stroke-width:1.2;stroke-linecap:butt;stroke-linejoin:miter;stroke:rgb(80%,80%,0%);stroke-opacity:1;stroke-miterlimit:10;" d="M 142.132812 135.996094 L 160.710938 131.453125 "/>
<path style="fill:none;stroke-width:1.2;stroke-linecap:butt;stroke-linejoin:miter;stroke:rgb(0%,0%,0%);stroke-opacity:1;stroke-miterlimit:10;" d="M 160.710938 131.453125 L 179.285156 126.910156 "/>
<path style=" stroke:none;fill-rule:nonzero;fill:rgb(100%,100%,100%);fill-opacity:1;" d="M 137.132812 126.496094 L 148.132812 126.496094 L 148.132812 145.496094 L 137.132812 145.496094 Z M 137.132812 126.496094 "/>
<g style="fill:rgb(80%,80%,0%);fill-opacity:1;">
  <use xlink:href="#glyph0-3" x="137.132812" y="141.347656"/>
</g>
<path style=" stroke:none;fill-rule:nonzero;fill:rgb(100%,100%,100%);fill-opacity:1;" d="M 127.046875 89.339844 L 140.046875 89.339844 L 140.046875 108.339844 L 127.046875 108.339844 Z M 127.046875 89.339844 "/>
<g style="fill:rgb(100%,0%,0%);fill-opacity:1;">
  <use xlink:href="#glyph0-4" x="127.046875" y="104.191406"/>
</g>
<path style=" stroke:none;fill-rule:nonzero;fill:rgb(100%,100%,100%);fill-opacity:1;" d="M 145.21875 163.648438 L 158.21875 163.648438 L 158.21875 182.648438 L 145.21875 182.648438 Z M 145.21875 163.648438 "/>
<g style="fill:rgb(100%,0%,0%);fill-opacity:1;">
  <use xlink:href="#glyph0-4" x="145.21875" y="178.5"/>
</g>
<path style="fill:none;stroke-width:1.2;stroke-linecap:butt;stroke-linejoin:miter;stroke:rgb(0%,0%,0%);stroke-opacity:1;stroke-miterlimit:10;" d="M 179.285156 126.910156 L 189.996094 90.1875 "/>
<path style="fill:none;stroke-width:1.2;stroke-linecap:butt;stroke-linejoin:miter;stroke:rgb(0%,0%,0%);stroke-opacity:1;stroke-miterlimit:10;" d="M 188.996094 125.757812 L 197.566406 96.378906 "/>
<path style="fill:none;stroke-width:1.2;stroke-linecap:butt;stroke-linejoin:miter;stroke:rgb(0%,0%,0%);stroke-opacity:1;stroke-miterlimit:10;" d="M 205.734375 154.542969 L 179.285156 126.910156 "/>
<path style="fill:none;stroke-width:1.2;stroke-linecap:butt;stroke-linejoin:miter;stroke:rgb(0%,0%,0%);stroke-opacity:1;stroke-miterlimit:10;" d="M 189.996094 90.1875 L 227.152344 81.101562 "/>
<path style="fill:none;stroke-width:1.2;stroke-linecap:butt;stroke-linejoin:miter;stroke:rgb(0%,0%,0%);stroke-opacity:1;stroke-miterlimit:10;" d="M 227.152344 81.101562 L 253.597656 108.738281 "/>
<path style="fill:none;stroke-width:1.2;stroke-linecap:butt;stroke-linejoin:miter;stroke:rgb(0%,0%,0%);stroke-opacity:1;stroke-miterlimit:10;" d="M 223.292969 90.089844 L 244.449219 112.195312 "/>
<path style="fill:none;stroke-width:1.2;stroke-linecap:butt;stroke-linejoin:miter;stroke:rgb(0%,0%,0%);stroke-opacity:1;stroke-miterlimit:10;" d="M 253.597656 108.738281 L 242.886719 145.457031 "/>
<path style="fill:none;stroke-width:1.2;stroke-linecap:butt;stroke-linejoin:miter;stroke:rgb(0%,0%,0%);stroke-opacity:1;stroke-miterlimit:10;" d="M 242.886719 145.457031 L 205.734375 154.542969 "/>
<path style="fill:none;stroke-width:1.2;stroke-linecap:butt;stroke-linejoin:miter;stroke:rgb(0%,0%,0%);stroke-opacity:1;stroke-miterlimit:10;" d="M 241.308594 155.109375 L 211.585938 162.375 "/>
<path style="fill:none;stroke-width:1.2;stroke-linecap:butt;stroke-linejoin:miter;stroke:rgb(0%,0%,0%);stroke-opacity:1;stroke-miterlimit:10;" d="M 269.335938 173.089844 L 242.886719 145.457031 "/>
<path style="fill:none;stroke-width:1.2;stroke-linecap:butt;stroke-linejoin:miter;stroke:rgb(0%,0%,0%);stroke-opacity:1;stroke-miterlimit:10;" d="M 205.734375 154.542969 L 195.023438 191.261719 "/>
<path style="fill:none;stroke-width:1.2;stroke-linecap:butt;stroke-linejoin:miter;stroke:rgb(0%,0%,0%);stroke-opacity:1;stroke-miterlimit:10;" d="M 195.023438 191.261719 L 221.46875 218.898438 "/>
<path style="fill:none;stroke-width:1.2;stroke-linecap:butt;stroke-linejoin:miter;stroke:rgb(0%,0%,0%);stroke-opacity:1;stroke-miterlimit:10;" d="M 204.171875 187.804688 L 225.328125 209.910156 "/>
<path style="fill:none;stroke-width:1.2;stroke-linecap:butt;stroke-linejoin:miter;stroke:rgb(0%,0%,0%);stroke-opacity:1;stroke-miterlimit:10;" d="M 221.46875 218.898438 L 240.046875 214.355469 "/>
<path style="fill:none;stroke-width:1.2;stroke-linecap:butt;stroke-linejoin:miter;stroke:rgb(0%,0%,100%);stroke-opacity:1;stroke-miterlimit:10;" d="M 240.046875 214.355469 L 258.625 209.8125 "/>
<path style="fill:none;stroke-width:1.2;stroke-linecap:butt;stroke-linejoin:miter;stroke:rgb(0%,0%,100%);stroke-opacity:1;stroke-miterlimit:10;" d="M 258.625 209.8125 L 263.980469 191.453125 "/>
<path style="fill:none;stroke-width:1.2;stroke-linecap:butt;stroke-linejoin:miter;stroke:rgb(0%,0%,0%);stroke-opacity:1;stroke-miterlimit:10;" d="M 263.980469 191.453125 L 269.335938 173.089844 "/>
<path style="fill:none;stroke-width:1.2;stroke-linecap:butt;stroke-linejoin:miter;stroke:rgb(0%,0%,100%);stroke-opacity:1;stroke-miterlimit:10;" d="M 251.054688 203.621094 L 255.339844 188.933594 "/>
<path style="fill:none;stroke-width:1.2;stroke-linecap:butt;stroke-linejoin:miter;stroke:rgb(0%,0%,0%);stroke-opacity:1;stroke-miterlimit:10;" d="M 255.339844 188.933594 L 259.625 174.242188 "/>
<path style=" stroke:none;fill-rule:nonzero;fill:rgb(100%,100%,100%);fill-opacity:1;" d="M 252.625 200.3125 L 264.625 200.3125 L 264.625 219.3125 L 252.625 219.3125 Z M 252.625 200.3125 "/>
<g style="fill:rgb(0%,0%,100%);fill-opacity:1;">
  <use xlink:href="#glyph0-1" x="252.625" y="215.164062"/>
</g>
</g>
</svg>

<svg xmlns="http://www.w3.org/2000/svg" xmlns:xlink="http://www.w3.org/1999/xlink" width="300pt" height="300pt" viewBox="0 0 300 300"><defs><symbol overflow="visible"><path d="M.797 2.828v-14.11h8V2.83zm.906-.89h6.203v-12.33H1.703zm0 0"/></symbol><symbol overflow="visible" id="a"><path d="M1.578-11.672h2.125l5.172 9.766v-9.766h1.53V0H8.282L3.11-9.766V0H1.577zm0 0"/></symbol><symbol overflow="visible" id="b"><path d="M1.578-11.672h1.578v4.78H8.89v-4.78h1.58V0H8.89v-5.563H3.157V0H1.578zm0 0"/></symbol><symbol overflow="visible" id="c"><path d="M8.563-11.28v1.53c-.594-.28-1.157-.488-1.688-.625-.53-.145-1.047-.22-1.547-.22-.855 0-1.516.17-1.984.5-.47.337-.703.81-.703 1.423 0 .512.157.902.47 1.172.312.262.898.47 1.765.625l.953.203c1.176.22 2.04.617 2.594 1.188.562.562.844 1.32.844 2.265 0 1.126-.383 1.986-1.14 2.58-.75.585-1.86.874-3.33.874-.554 0-1.14-.07-1.765-.203-.616-.124-1.257-.303-1.92-.546V-2.14c.632.355 1.257.624 1.874.812.614.18 1.22.266 1.813.266.906 0 1.6-.176 2.094-.532.49-.35.735-.86.735-1.515 0-.57-.18-1.02-.53-1.343-.357-.32-.935-.563-1.736-.72l-.954-.186c-1.18-.238-2.03-.61-2.562-1.11-.524-.5-.782-1.19-.782-2.077 0-1.03.36-1.844 1.08-2.437.725-.594 1.733-.89 3.014-.89.54 0 1.094.054 1.657.155.57.095 1.156.243 1.75.44zm0 0"/></symbol><symbol overflow="visible" id="d"><path d="M6.313-10.594c-1.15 0-2.06.43-2.735 1.28-.68.857-1.015 2.017-1.015 3.486 0 1.47.335 2.633 1.015 3.484.676.856 1.586 1.28 2.735 1.28 1.144.002 2.05-.424 2.718-1.28.665-.85 1-2.015 1-3.484 0-1.47-.335-2.63-1-3.484-.667-.852-1.573-1.282-2.717-1.282zm0-1.28c1.632 0 2.94.546 3.92 1.64.978 1.093 1.47 2.562 1.47 4.406 0 1.844-.492 3.32-1.47 4.422-.98 1.093-2.288 1.64-3.92 1.64-1.65 0-2.96-.546-3.938-1.64-.98-1.102-1.47-2.578-1.47-4.422 0-1.844.49-3.313 1.47-4.406.977-1.094 2.29-1.64 3.938-1.64zm0 0"/></symbol></defs><g><path fill="#fff" d="M0 0h300v300H0z"/><path d="M94.266 181.8m1.668 2.497l.754-.723m.91 3.215l1.507-1.442m.16 3.937l2.258-2.164m-.593 4.66l3.015-2.885m-1.347 5.378l3.765-3.6m-2.1 6.097l4.518-4.325m-2.85 6.82l5.273-5.046m-3.61 7.538l6.028-5.766m-4.358 8.262l6.777-6.488m-5.114 8.984l7.535-7.21m-5.866 9.706l8.285-7.934m-6.622 10.426l9.043-8.648m-7.464 11.012l9.754-9.332" stroke="#000" stroke-miterlimit="10" fill="none"/><path d="M94.266 181.8l-37.153 9.087" stroke-width="1.2" stroke="#000" stroke-miterlimit="10" fill="none"/><path d="M104.977 145.082l-5.356 18.36" stroke-width="1.2" stroke="#00f" stroke-miterlimit="10" fill="none"/><path d="M99.62 163.44l-5.354 18.36M57.113 190.887L43.89 177.07" stroke-width="1.2" stroke="#000" stroke-miterlimit="10" fill="none"/><path d="M43.89 177.07l-13.226-13.82M30.664 163.25l5.356-18.36" stroke-width="1.2" stroke="#00f" stroke-miterlimit="10" fill="none"/><path d="M36.02 144.89l5.355-18.36" stroke-width="1.2" stroke="#000" stroke-miterlimit="10" fill="none"/><path d="M18.664 153.75h24v19h-24zm0 0" fill="#fff"/><g fill="#00f"><use xlink:href="#a" x="18.664" y="168.602"/><use xlink:href="#b" x="30.633" y="168.602"/></g><path d="M41.375 126.53l37.156-9.085M78.53 117.445l13.224 13.817" stroke-width="1.2" stroke="#000" stroke-miterlimit="10" fill="none"/><path d="M91.754 131.262l13.223 13.82M104.977 145.082l18.578-4.543" stroke-width="1.2" stroke="#00f" stroke-miterlimit="10" fill="none"/><path d="M123.555 140.54l18.578-4.544" stroke-width="1.2" stroke="#cc0" stroke-miterlimit="10" fill="none"/><path d="M98.977 135.582h12v19h-12zm0 0" fill="#fff"/><use xlink:href="#a" x="98.977" y="150.434" fill="#00f"/><path d="M146.504 134.926l-4.543-18.578" stroke-width="1.2" stroke="#cc0" stroke-miterlimit="10" fill="none"/><path d="M141.96 116.348L137.42 97.77" stroke-width="1.2" stroke="#f00" stroke-miterlimit="10" fill="none"/><path d="M137.762 137.063l-4.543-18.58" stroke-width="1.2" stroke="#cc0" stroke-miterlimit="10" fill="none"/><path d="M133.22 118.484l-4.544-18.578" stroke-width="1.2" stroke="#f00" stroke-miterlimit="10" fill="none"/><path d="M137.762 137.063l4.543 18.578" stroke-width="1.2" stroke="#cc0" stroke-miterlimit="10" fill="none"/><path d="M142.305 155.64l4.543 18.58" stroke-width="1.2" stroke="#f00" stroke-miterlimit="10" fill="none"/><path d="M146.504 134.926l4.543 18.578" stroke-width="1.2" stroke="#cc0" stroke-miterlimit="10" fill="none"/><path d="M151.047 153.504l4.543 18.578" stroke-width="1.2" stroke="#f00" stroke-miterlimit="10" fill="none"/><path d="M142.133 135.996l18.578-4.543" stroke-width="1.2" stroke="#cc0" stroke-miterlimit="10" fill="none"/><path d="M160.71 131.453l18.575-4.543" stroke-width="1.2" stroke="#000" stroke-miterlimit="10" fill="none"/><path d="M137.133 126.496h11v19h-11zm0 0" fill="#fff"/><use xlink:href="#c" x="137.133" y="141.348" fill="#cc0"/><path d="M127.047 89.34h13v19h-13zm0 0" fill="#fff"/><use xlink:href="#d" x="127.047" y="104.191" fill="#f00"/><path d="M145.22 163.648h13v19h-13zm0 0" fill="#fff"/><use xlink:href="#d" x="145.219" y="178.5" fill="#f00"/><path d="M179.285 126.91l10.71-36.722M188.996 125.758l8.57-29.38M205.734 154.543l-26.45-27.633M189.996 90.188l37.156-9.086M227.152 81.102l26.446 27.636M223.293 90.09l21.156 22.105M253.598 108.738l-10.71 36.72M242.887 145.457l-37.153 9.086M241.31 155.11l-29.724 7.265M269.336 173.09l-26.45-27.633M205.734 154.543l-10.71 36.72M195.023 191.262l26.446 27.636M204.172 187.805l21.156 22.105M221.47 218.898l18.577-4.543" stroke-width="1.2" stroke="#000" stroke-miterlimit="10" fill="none"/><path d="M240.047 214.355l18.578-4.542M258.625 209.813l5.355-18.36" stroke-width="1.2" stroke="#00f" stroke-miterlimit="10" fill="none"/><path d="M263.98 191.453l5.356-18.363" stroke-width="1.2" stroke="#000" stroke-miterlimit="10" fill="none"/><path d="M251.055 203.62l4.285-14.686" stroke-width="1.2" stroke="#00f" stroke-miterlimit="10" fill="none"/><path d="M255.34 188.934l4.285-14.692" stroke-width="1.2" stroke="#000" stroke-miterlimit="10" fill="none"/><path d="M252.625 200.313h12v19h-12zm0 0" fill="#fff"/><use xlink:href="#a" x="252.625" y="215.164" fill="#00f"/></g></svg>
